X: 6
T: Ave nostra salus
C: Anonymous
%%abc-version 2.0
%%abcx-abcm2ps-target-version 5.9.1 (29 Sep 2008)
%%abc-creator hum2abc beta
%%abcx-conversion-date 2022/03/06 13:05:54
%%abc-copyright Copyright 2008, Pavanello, Agnese
%%abc-edited-by Mair-Gruber, Roland
%%humdrum-veritas 1723164626
%%humdrum-veritas-data 2848442627
%%linebreak <none>
%%barnumbers 0
L: 1/4
M: 2/2
N: Derived from Ano0421-Ave_nostra_salus.krn
%%staves [1 2 3 4]
V: 1 clef=treble
V: 2 clef=treble-8
V: 3 clef=treble-8
V: 4 clef=bass
K: C
[V:1] F4 | 
[V:2] d4 | 
[V:3] A4 | 
[V:4] D,4 | 
[V:1] !fermata!F4 | 
[V:2] !fermata!d4 | 
[V:3] !fermata!A4 | 
[V:4] !fermata!D,4 | 
[V:1] z4 | 
[V:2] z4 | 
[V:3] z4 | 
[V:4] z4 | 
[V:1] G4 | 
[V:2] B4 | 
[V:3] G4 | 
[V:4] E,4 | 
[V:1] A4 | 
[V:2] d4 | 
[V:3] F4 | 
[V:4] D,4 | 
[V:1] c4 | 
[V:2] e4 | 
[V:3] E4 | 
[V:4] C,4 | 
[V:1] !fermata!B4 | 
[V:2] !fermata!d4 | 
[V:3] !fermata!G4 | 
[V:4] !fermata!G,,4 | 
[V:1] z4 | 
[V:2] z4 | 
[V:3] z4 | 
[V:4] z4 | 
[V:1] A4 | 
[V:2] d4- | 
[V:3] F4 | 
[V:4] D,4- | 
[V:1] A4 | 
[V:2] d2d2- | 
[V:3] F4 | 
[V:4] D,2F,2 | 
[V:1] G4 | 
[V:2] d2^c2 | 
[V:3] G4 | 
[V:4] E,4 | 
[V:1] !fermata!^F4 | 
[V:2] !fermata!d4 | 
[V:3] !fermata!A4 | 
[V:4] !fermata!D,4 | 
[V:1] z4 | 
[V:2] z4 | 
[V:3] z4 | 
[V:4] z4 | 
[V:1] G2G2 | 
[V:2] d2d2 | 
[V:3] B2B2 | 
[V:4] G,,2G,,2 | 
[V:1] G2G2 | 
[V:2] e2c2 | 
[V:3] G2G2 | 
[V:4] C,2E,2 | 
[V:1] F4 | 
[V:2] d4 | 
[V:3] A3B | 
[V:4] D,4 | 
[V:1] !fermata!E4 | 
[V:2] !fermata!G4 | 
[V:3] !fermata!c4 | 
[V:4] !fermata!C,4 | 
[V:1] z4 | 
[V:2] z4 | 
[V:3] z4 | 
[V:4] z4 | 
[V:1] E2E2 | 
[V:2] c2G2 | 
[V:3] G2c2 | 
[V:4] C,2C,2 | 
[V:1] D2C2 | 
[V:2] F2E2 | 
[V:3] A2A2 | 
[V:4] D,2A,,2 | 
[V:1] D2D2 | 
[V:2] G2G2 | 
[V:3] B2B2 | 
[V:4] G,,2G,,2 | 
[V:1] !fermata!C4 | 
[V:2] !fermata!E4 | 
[V:3] !fermata!A4 | 
[V:4] !fermata!A,,4 | 
[V:1] z4 | 
[V:2] z4 | 
[V:3] z4 | 
[V:4] z4 | 
[V:1] D2E2 | 
[V:2] G2G2 | 
[V:3] B2c2 | 
[V:4] G,,2C,2 | 
[V:1] F2G2- | 
[V:2] F2E2 | 
[V:3] A2G2- | 
[V:4] D,2E,2- | 
[V:1] G2G2 | 
[V:2] zG2G | 
[V:3] GABc | 
[V:4] E,2E,2 | 
[V:1] F4- | 
[V:2] A4 | 
[V:3] d3c/B/ | 
[V:4] D,4- | 
[V:1] !fermata!F4 | 
[V:2] !fermata!d4 | 
[V:3] !fermata!A4 | 
[V:4] !fermata!D,4 | 
[V:1] F2GA- | 
[V:2] d2ef- | 
[V:3] d2Bc- | 
[V:4] D,2G,F,- | 
[V:1] AcBA- | 
[V:2] f/g/ad2 | 
[V:3] cB/A/GF | 
[V:4] F,/E,/F,G,D, | 
[V:1] AG2^F | 
[V:2] Bcd2 | 
[V:3] G2A2 | 
[V:4] E,2D,2 | 
[V:1] G4 ||  
[V:2] d4 ||  
[V:3] G4 ||  
[V:4] G,,4 ||  
[V:1] F4 | 
[V:2] d4 | 
[V:3] A4 | 
[V:4] D,4 | 
[V:1] F4 | 
[V:2] d4 | 
[V:3] A4 | 
[V:4] D,4 | 
[V:1] G4 | 
[V:2] B4 | 
[V:3] G4 | 
[V:4] E,4 | 
[V:1] A4 | 
[V:2] d4 | 
[V:3] F4 | 
[V:4] D,4 | 
[V:1] c4 | 
[V:2] e4 | 
[V:3] E4 | 
[V:4] C,4 | 
[V:1] !fermata!B4 | 
[V:2] !fermata!d4 | 
[V:3] !fermata!G4 | 
[V:4] !fermata!G,,4 | 
[V:1] A4- | 
[V:2] d4- | 
[V:3] F4- | 
[V:4] D,4- | 
[V:1] A2A2 | 
[V:2] d2d2- | 
[V:3] F2F2 | 
[V:4] D,2F,2 | 
[V:1] G4 | 
[V:2] d2^c2 | 
[V:3] G4 | 
[V:4] E,4 | 
[V:1] !fermata!^F4 | 
[V:2] !fermata!d4 | 
[V:3] !fermata!A4 | 
[V:4] !fermata!D,4 | 
[V:1] G4 | 
[V:2] d4 | 
[V:3] B4 | 
[V:4] G,,4 | 
[V:1] G2G2 | 
[V:2] e2c2 | 
[V:3] G2G2 | 
[V:4] C,2E,2 | 
[V:1] F4 | 
[V:2] d4 | 
[V:3] A3B | 
[V:4] D,4 | 
[V:1] E4 | 
[V:2] G4 | 
[V:3] c4 | 
[V:4] C,4 | 
[V:1] E2E2 | 
[V:2] c2G2 | 
[V:3] G2c2 | 
[V:4] C,2C,2 | 
[V:1] D2C2 | 
[V:2] F2E2 | 
[V:3] A2A2 | 
[V:4] D,2A,,2 | 
[V:1] D4 | 
[V:2] G4 | 
[V:3] B4 | 
[V:4] G,,4 | 
[V:1] C4 | 
[V:2] E4 | 
[V:3] A4 | 
[V:4] A,,4 | 
[V:1] D2E2 | 
[V:2] G2G2 | 
[V:3] B2c2 | 
[V:4] G,,2C,2 | 
[V:1] F2G2- | 
[V:2] F2E2 | 
[V:3] A2G2- | 
[V:4] D,2E,2- | 
[V:1] G2G2 | 
[V:2] zG2G | 
[V:3] GABc | 
[V:4] E,2E,2 | 
[V:1] !fermata!F4- | 
[V:2] A4 | 
[V:3] d3c | 
[V:4] !fermata!D,4- | 
[V:1] F4 | 
[V:2] !fermata!d4 | 
[V:3] !fermata!A4 | 
[V:4] D,4 | 
[V:1] F2GA- | 
[V:2] d2ef- | 
[V:3] d2Bc- | 
[V:4] D,2G,F,- | 
[V:1] AcBA- | 
[V:2] f/g/ad2 | 
[V:3] cB/A/GF | 
[V:4] F,/E,/F,G,D, | 
[V:1] AG2^F | 
[V:2] Bcd2 | 
[V:3] G2A2 | 
[V:4] E,2D,2 | 
[V:1] G4 ||  
[V:2] d4 ||  
[V:3] G4 ||  
[V:4] G,,4 ||  
[V:1] z2c2 | 
[V:2] z2A2 | 
[V:3] z2E2 | 
[V:4] z2A,,2 | 
[V:1] c4 | 
[V:2] c4 | 
[V:3] E4 | 
[V:4] A,,4 | 
[V:1] !fermata!B4 | 
[V:2] !fermata!d4 | 
[V:3] !fermata!G4 | 
[V:4] !fermata!G,,4 | 
[V:1] z2B2 | 
[V:2] z2d2 | 
[V:3] z2G2 | 
[V:4] z2G,2 | 
[V:1] B4 | 
[V:2] d4 | 
[V:3] B4 | 
[V:4] G,4 | 
[V:1] !fermata!A4 | 
[V:2] !fermata!f4 | 
[V:3] !fermata!c4 | 
[V:4] !fermata!F,4 | 
[V:1] z2A2 | 
[V:2] z2f2 | 
[V:3] z2d2 | 
[V:4] z2D,2 | 
[V:1] A2A2 | 
[V:2] f2c2 | 
[V:3] d2A2 | 
[V:4] D,2F,2 | 
[V:1] G4 | 
[V:2] e4 | 
[V:3] B4 | 
[V:4] E,4 | 
[V:1] !fermata!^F4 | 
[V:2] !fermata!A4 | 
[V:3] !fermata!d4 | 
[V:4] !fermata!D,4 | 
[V:1] z4 | 
[V:2] G2EC | 
[V:3] z4 | 
[V:4] G,,2G,,A,,- | 
[V:1] z4 | 
[V:2] FED2 | 
[V:3] z4 | 
[V:4] A,,C,B,,2 | 
[V:1] z4 | 
[V:2] z2c2 | 
[V:3] G2GA- | 
[V:4] C,3C, | 
[V:1] z4 | 
[V:2] e2d2 | 
[V:3] AcB2 | 
[V:4] C,2D,2 | 
[V:1] G2GA- | 
[V:2] e>fgf- | 
[V:3] c3c | 
[V:4] C,2E,F,- | 
[V:1] AcB2 | 
[V:2] f/e/fg2 | 
[V:3] c2d2 | 
[V:4] F,/G,/A,G,2 | 
[V:1] c3c | 
[V:2] zg2e | 
[V:3] c2G2 | 
[V:4] C,4 | 
[V:1] d2c3/B/ | 
[V:2] d2e2 | 
[V:3] B2G2 | 
[V:4] B,,2C,2 | 
[V:1] A/G/A2B- | 
[V:2] f2z2 | 
[V:3] Ac2d- | 
[V:4] F,3D, | 
[V:1] BA/G/FA- | 
[V:2] d3f- | 
[V:3] dc/B/Ac- | 
[V:4] G,2zF,- | 
[V:1] AG2^F | 
[V:2] f/e/d3 | 
[V:3] cBA2 | 
[V:4] F,G,D,2 | 
[V:1] G4 |]  
[V:2] d4 |]  
[V:3] G4 |]  
[V:4] G,,4 |]  


